X: 71
T: SINGLE JIGS: Scully Casey's Set
T: Humours of Kilclogher / Humours of Kiltyclogher
C: C: Trad.; S: Liam O'Flynn / Bobby Casey & Tommy Keane
C: Set Leaders: Alexey, Anton
Z: Anton Zille ed.; NfldWhistler / Richie Davis / gian marco at The Session
N: https://thesession.org/members/26966/sets/99621
R: Single Jig
M: 12/8
L: 1/8
Q: 3/8=116
K: Ador
B|:AGE ~G2E c2E EFG|~D3 D2E GED D2B|
AGE ~G2E c2E EFG|~A3 BGE ~A3 A2B:||
|:c2B c2d ecA ABc|BAG GA/B/c dBG GAB|
c2B c2d ecA ABc|BAG GAB ~A3 A2B:||
T: Scully Casey's
K: Dmaj
dcd AGE =F2G A2B|=cBc A2c cBc ABc|
dcd AGE =F2G A2g|fed edc d2e f2e|
dcd AGE =F2G A2B|=cBc A2c cBc ABc|
dcd AGE =F2G A2g|fed edc d3 d2A||
d2e ~f2g ~a3 afd|B=cd e2f gaf ge^c|
d2e f2g ~a3 agf|ecA ABc d3 d2A|
d2e ~f2g ~a3 afd|B=cd e2f ~g3 ge/f/g|
agf gfe fed edc|dcA ABc d2e f2e||
T: Bimíd ag Ól
R: Jig
M: 6/8
K: Gmaj
|:DGA ~B3|cBc ~d3|DGA B2 d|cAG AGF|
DGA ~B3|cBc def|~g3 afd|cAF G2D:||
|:GBd ~g3|gfd =f3|GBd ~g3|gfd cAF|
GBd ~g3|gag f2g|abg afd|cAF G3:||

